X:1
T:Tourdion
T:Tourdion
T:Pierre Attaingnant
T:Ida Høeg Jacobsen
C:Pierre Attaingnant
Z:Ida Høeg Jacobsen
%%score [ 1 2 3 4 ]
L:1/8
Q:1/4=120
M:6/8
K:D
V:1 treble nm="Sopran" snm="Sopran"
V:2 treble nm="Alt" snm="Alt"
V:3 treble-8 nm="Tenor" snm="Tenor"
V:4 bass nm="Bass" snm="Bass"
V:1
|: EFG AGF | E3 FGA | BAG GAF | G2 F E D2 | EFG AGF | E2 G2 F2 | E4 D2 | E6 :: B3 ABc | B4 B2 | %10
w: Quand je bois du vin clai-|ret. a- mi tout|tour- ne, tour- ne, tour- ne,|tour- * * ne,|aus- si dé- sorm- ais je|bois. An- jou|ou Ar-|bois|Chan- tons et bu-|vons, à|
w: Fyld po- ka- len helt til|ran- den, få al-|ver- den til at svin- ge|svin- * * ge,|mig for- tryl- ler fin Bor-|daux. An- jou|og Mar-|gaux|Le- ve vin og|sang, lad|
 dcB AGF | G3 F E2 | B3 ABc | B2 A G F2 | E4 D2 | E6 :| %16
w: ce fla- con fal- sons la|guer- * re,|chan- tons et bu-|vons, mes a- mis,|bu- vons|donc!|
w: flas- kens blod i glas- set|rin- * de.|Le- ve vin og|sang, bæ- ger- klang|nat- ten|lang!|
V:2
|: B,4 B,2 | E4 E2 | D4 E2 | E2 A4 | G4 E2 | B,A,B, C D2 | B,2 B,4 | B,6 :: G4 G2 | G4 G2 | F4 F2 | %11
w: Le bon|vin nous|a ren-|dus gais,|chan- tons,|oub- li- ons nos pei-|nes, chan-|tons.|En man-|geant d'un|gras jam-|
w: Fyld po-|ka- len|helt til|ran- den,|få al-|ver- den til at svin-|ge, svin-|ge.|Le- ve|sang og|bæ- ger-|
 E4 E2 | D4 D2 | D4 D2 | B,2 B,4 | B,4 B,2 :| %16
w: bon, á|ce fla-|con fai-|sons la|guer- re!|
w: klang, lad|fla- skens|blod i|glas- set|rin- de!|
V:3
|: G4 E2 | B4 B2 | B4 =c2 | B4 A2 | B4 B2 | G4 A2 | G2 F E F2 | E6 :: e4 e2 | d4 d2 | d4 d2 | %11
w: Bu- vons|bien, lá|bu- vons|donc a|ce fla-|con fai-|sons la * guer-|re.|En man-|geant d'un|gras jam-|
w: Fyld po-|ka- len|helt til|ran- den,|få al-|ver- den|til at * svin-|ge.|Le- ve|sang og|bæ- ger-|
 B4 B2 | B4 B2 | B4 A2 | G2 F4 | E4 E2 :| %16
w: bon, á|ce fla-|con fai-|sons la|guer- re!|
w: klang, lad|fla- skens|blod i|glas- set|rin- de!|
V:4
|: E,4 E,2 | E,4 E,2 | (G,2 B,2) A,2 | E,2 F,4 | E,4 E,2 | E,4 D,2 | E,2 B,,4 | E,4 E,2 :: %8
w: Bu- vons|bien, bu-|vons mes a-|mis, Trin-|quons, bu-|vons, vi-|dons nos|ver- res.|
w: Fyld po-|ka- len|he- elt til|ran- den,|få al-|ver- den|til at|svin- ge|
 E,4 E,2 | G,4 G,2 | D,4 D,2 | E,4 E,2 | G,4 G,2 | G,4 D,2 | E,2 B,,4 | E,4 E,2 :| %16
w: En man-|geant d'un|gras jam-|bon, á|ce fla-|con fai-|sons la|guer- re!|
w: Le- ve|sang og|bæ- ger-|klang, lad|fla- skens|blod i|glas- set|rin- de!|

